X:61
T:Shuterâ€™s Hornpipe. JBs.061
S:Jas.Blackshaw MS, 1837, N.Shropshire
A:North Shropshire
Z:T. Weatherall 2006
M:4/4
L:1/4
Q:1/2=90
R:.Hornpipe
K:G
GGG/A/B/c/|d/B/c/A/ G/B/A/G/|AAA/c/e/d/|c/B/A/G/ F/A/F/D/|
GGG/A/B/c/|d/B/c/A/Gg|f/a/f/d/ e/g/e/c/|ddd2:|
|:AAA/c/e/d/|c/B/A/G/ F/A/F/D/|ddde/f/|g/e/d/c/ B/d/B/G/|
ecc/g/f/e/|dBB/g/f/g/|e/c/d/B/ c/A/G/F/|GGG2:|

